Newaita-dark/devices/24/media-flash-cf.svg

<svg height="24pt" viewBox="0 0 24 24" width="24pt" xmlns="http://www.w3.org/2000/svg" xmlns:xlink="http://www.w3.org/1999/xlink"><linearGradient id="a" gradientUnits="userSpaceOnUse" x1="11.907391" x2="11.907391" y1="20.98665325" y2="21.97893615627"><stop offset="0" stop-opacity=".27451"/><stop offset="1" stop-opacity="0"/></linearGradient><linearGradient id="b"><stop offset="0" stop-opacity=".313725"/><stop offset=".222222" stop-opacity=".27451"/><stop offset="1" stop-opacity="0"/></linearGradient><radialGradient id="c" cx="450.90894" cy="189.57936" gradientTransform="matrix(.00000013 -.0585994 -.105479 -.00000008 37.857633 47.657703)" gradientUnits="userSpaceOnUse" r="21.166656" xlink:href="#b"/><radialGradient id="d" cx="450.90894" cy="189.57936" gradientTransform="matrix(-.00000013 .0585994 .105479 .00000008 -14.042859 -5.684407)" gradientUnits="userSpaceOnUse" r="21.166656" xlink:href="#b"/><radialGradient id="e" cx="450.90894" cy="189.57936" gradientTransform="matrix(-.00000013 -.0585994 .105479 -.00000008 -14.042859 47.657703)" gradientUnits="userSpaceOnUse" r="21.166656" xlink:href="#b"/><radialGradient id="f" cx="450.90894" cy="189.57936" gradientTransform="matrix(.00000013 .0585994 -.105479 .00000008 37.857631 -5.684407)" gradientUnits="userSpaceOnUse" r="21.166656" xlink:href="#b"/><linearGradient id="g" gradientUnits="userSpaceOnUse" x1="11.907393" x2="11.907393" y1="21.02545025" y2="2.17207784373"><stop offset="0" stop-color="#424242"/><stop offset="1" stop-color="#616161"/></linearGradient><linearGradient id="h" gradientUnits="userSpaceOnUse" x1="11.907393" x2="11.907393" y1="21.02545025" y2="2.17207784373"><stop offset="0" stop-color="#bdbdbd"/><stop offset="1" stop-color="#e0e0e0"/></linearGradient><linearGradient id="i" gradientUnits="userSpaceOnUse" x1="9.92282765627" x2="9.92282765627" y1="21.02545025" y2="2.17207784373"><stop offset="0" stop-color="#f44336"/><stop offset="1" stop-color="#ef5350"/></linearGradient><linearGradient id="j" gradientUnits="userSpaceOnUse" x1="11.907393" x2="11.907393" y1="21.02545025" y2="2.17207784373"><stop offset="0" stop-color="#ffca28"/><stop offset="1" stop-color="#ffd54f"/></linearGradient><path d="m5.707031 21.003906h12.402344v1.015625h-12.402344zm0 0" fill="url(#a)"/><path d="m18.109375 20.988281h1.984375v-.992187h-1.984375zm0 0" fill="url(#c)"/><path d="m5.707031 20.988281h-1.984375v.992188h1.984375zm0 0" fill="url(#d)"/><path d="m5.707031 20.988281h-1.984375v-.992187h1.984375zm0 0" fill="url(#e)"/><path d="m18.109375 20.988281h1.984375v.992188h-1.984375zm0 0" fill="url(#f)"/><path d="m4.960938 2.171875h13.890624c.550782 0 .992188.445313.992188.992187v16.867188c0 .550781-.441406.996094-.992188.996094h-13.890624c-.546876 0-.992188-.445313-.992188-.996094v-16.867188c0-.546874.445312-.992187.992188-.992187zm0 0" fill="url(#g)"/><path d="m11.90625 3.167969c-.261719 0-.511719.105469-.695312.289062l-.207032.207031h-5.050781c-.542969 0-.988281.441407-.988281.988282v13.890625c0 .546875.445312.988281.988281.988281h5.050781l.207032.207031c.183593.1875.433593.289063.695312.289063h5.953125c.546875 0 .988281-.441406.988281-.988282v-14.882812c0-.546875-.441406-.988281-.988281-.988281zm0 0" fill="url(#h)"/><path d="m7.441406 3.660156h3.472656v15.875h-3.472656zm0 0" fill="url(#i)"/><path d="m5.953125 3.664062c-.542969 0-.988281.441407-.988281.988282v13.890625c0 .546875.445312.988281.988281.988281h1.488281v-15.867188zm0 0" fill="url(#j)"/><g fill="none" stroke="#212121" stroke-linecap="round" stroke-linejoin="round"><path d="m253.975747-147.42312c-5.582801 0-10.915625 2.249785-14.831917 6.166078l-4.416245 4.416245h-107.739712c-11.582227 0-21.08132 9.415767-21.08132 21.08132v296.305038c0 11.665552 9.499093 21.08132 21.08132 21.08132h107.739712l4.416245 4.416245c3.916292 3.999618 9.249116 6.166078 14.831917 6.166078h126.987873c11.665552 0 21.08132-9.415768 21.08132-21.081321v-317.469683c0-11.665552-9.415768-21.08132-21.08132-21.08132zm0 0" stroke-width="3" transform="matrix(.0468795 0 0 .0468795 0 10.079087)"/><path d="m158.734842-136.924123h74.076259v338.634329h-74.076259zm0 0" stroke-width="3" transform="matrix(.0468795 0 0 .0468795 0 10.079087)"/><path d="m479.954173 295.404865c-43.775348 0-79.677432 35.587153-79.677432 79.677431v1119.89307c0 44.090278 35.902084 79.677432 79.677432 79.677432h119.988543v-1279.247933zm0 0" stroke-width="11.338583" transform="scale(.0124035)"/></g><path d="m4.960938 2.171875c-.550782 0-.992188.441406-.992188.992187v.25c0-.550781.441406-.992187.992188-.992187h13.890624c.550782 0 .992188.441406.992188.992187v-.25c0-.550781-.441406-.992187-.992188-.992187zm0 0" fill="#fff" fill-opacity=".313725"/><path d="m3.96875 19.660156v.371094c0 .550781.441406.996094.992188.996094h13.890624c.550782 0 .992188-.445313.992188-.996094v-.371094c0 .550782-.441406.992188-.992188.992188h-13.890624c-.550782 0-.992188-.441406-.992188-.992188zm0 0" fill-opacity=".235294"/><path d="m105.823228-168.671091h296.305037c11.748878 0 21.164646 9.499093 21.164646 21.164646v359.798974c0 11.748878-9.415768 21.247971-21.164646 21.247971h-296.305037c-11.665553 0-21.164646-9.499093-21.164646-21.247971v-359.798974c0-11.665553 9.499093-21.164646 21.164646-21.164646zm0 0" fill="none" stroke="#212121" stroke-linecap="round" stroke-linejoin="round" stroke-width="3" transform="matrix(.0468795 0 0 .0468795 0 10.079087)"/></svg>

<?xml version="1.0" encoding="UTF-8"?>
<svg xmlns="http://www.w3.org/2000/svg" xmlns:xlink="http://www.w3.org/1999/xlink" width="24pt" height="24pt" viewBox="0 0 24 24" version="1.1">
<defs>
<linearGradient id="linear0" gradientUnits="userSpaceOnUse" x1="254" y1="233.5" x2="254" y2="254.66667" gradientTransform="matrix(0.0468795,0,0,0.0468795,-0.00000187518,10.04029)">
<stop offset="0" style="stop-color:rgb(0%,0%,0%);stop-opacity:0.27451;"/>
<stop offset="1" style="stop-color:rgb(0%,0%,0%);stop-opacity:0;"/>
</linearGradient>
<radialGradient id="radial0" gradientUnits="userSpaceOnUse" cx="450.90894" cy="189.57936" fx="450.90894" fy="189.57936" r="21.166656" gradientTransform="matrix(0.000000130628,-0.0585994,-0.105479,-0.0000000761539,37.857633,47.657703)">
<stop offset="0" style="stop-color:rgb(0%,0%,0%);stop-opacity:0.313725;"/>
<stop offset="0.222222" style="stop-color:rgb(0%,0%,0%);stop-opacity:0.27451;"/>
<stop offset="1" style="stop-color:rgb(0%,0%,0%);stop-opacity:0;"/>
</radialGradient>
<radialGradient id="radial1" gradientUnits="userSpaceOnUse" cx="450.90894" cy="189.57936" fx="450.90894" fy="189.57936" r="21.166656" gradientTransform="matrix(-0.000000130628,0.0585994,0.105479,0.0000000761539,-14.042859,-5.684407)">
<stop offset="0" style="stop-color:rgb(0%,0%,0%);stop-opacity:0.313725;"/>
<stop offset="0.222222" style="stop-color:rgb(0%,0%,0%);stop-opacity:0.27451;"/>
<stop offset="1" style="stop-color:rgb(0%,0%,0%);stop-opacity:0;"/>
</radialGradient>
<radialGradient id="radial2" gradientUnits="userSpaceOnUse" cx="450.90894" cy="189.57936" fx="450.90894" fy="189.57936" r="21.166656" gradientTransform="matrix(-0.000000130628,-0.0585994,0.105479,-0.0000000761539,-14.042859,47.657703)">
<stop offset="0" style="stop-color:rgb(0%,0%,0%);stop-opacity:0.313725;"/>
<stop offset="0.222222" style="stop-color:rgb(0%,0%,0%);stop-opacity:0.27451;"/>
<stop offset="1" style="stop-color:rgb(0%,0%,0%);stop-opacity:0;"/>
</radialGradient>
<radialGradient id="radial3" gradientUnits="userSpaceOnUse" cx="450.90894" cy="189.57936" fx="450.90894" fy="189.57936" r="21.166656" gradientTransform="matrix(0.000000130628,0.0585994,-0.105479,0.0000000761539,37.857631,-5.684407)">
<stop offset="0" style="stop-color:rgb(0%,0%,0%);stop-opacity:0.313725;"/>
<stop offset="0.222222" style="stop-color:rgb(0%,0%,0%);stop-opacity:0.27451;"/>
<stop offset="1" style="stop-color:rgb(0%,0%,0%);stop-opacity:0;"/>
</radialGradient>
<linearGradient id="linear1" gradientUnits="userSpaceOnUse" x1="254" y1="233.5" x2="254" y2="-168.66667" gradientTransform="matrix(0.0468795,0,0,0.0468795,0,10.079087)">
<stop offset="0" style="stop-color:rgb(25.882353%,25.882353%,25.882353%);stop-opacity:1;"/>
<stop offset="1" style="stop-color:rgb(38.039216%,38.039216%,38.039216%);stop-opacity:1;"/>
</linearGradient>
<linearGradient id="linear2" gradientUnits="userSpaceOnUse" x1="254" y1="233.5" x2="254" y2="-168.66667" gradientTransform="matrix(0.0468795,0,0,0.0468795,0,10.079087)">
<stop offset="0" style="stop-color:rgb(74.117647%,74.117647%,74.117647%);stop-opacity:1;"/>
<stop offset="1" style="stop-color:rgb(87.843137%,87.843137%,87.843137%);stop-opacity:1;"/>
</linearGradient>
<linearGradient id="linear3" gradientUnits="userSpaceOnUse" x1="211.66667" y1="233.5" x2="211.66667" y2="-168.66667" gradientTransform="matrix(0.0468795,0,0,0.0468795,0,10.079087)">
<stop offset="0" style="stop-color:rgb(95.686275%,26.27451%,21.176471%);stop-opacity:1;"/>
<stop offset="1" style="stop-color:rgb(93.72549%,32.54902%,31.372549%);stop-opacity:1;"/>
</linearGradient>
<linearGradient id="linear4" gradientUnits="userSpaceOnUse" x1="254" y1="233.5" x2="254" y2="-168.66667" gradientTransform="matrix(0.0468795,0,0,0.0468795,0,10.079087)">
<stop offset="0" style="stop-color:rgb(100%,79.215686%,15.686275%);stop-opacity:1;"/>
<stop offset="1" style="stop-color:rgb(100%,83.529412%,30.980392%);stop-opacity:1;"/>
</linearGradient>
</defs>
<g id="surface1">
<path style=" stroke:none;fill-rule:nonzero;fill:url(#linear0);" d="M 5.707031 21.003906 L 18.109375 21.003906 L 18.109375 22.019531 L 5.707031 22.019531 Z M 5.707031 21.003906 "/>
<path style=" stroke:none;fill-rule:nonzero;fill:url(#radial0);" d="M 18.109375 20.988281 L 20.09375 20.988281 L 20.09375 19.996094 L 18.109375 19.996094 Z M 18.109375 20.988281 "/>
<path style=" stroke:none;fill-rule:nonzero;fill:url(#radial1);" d="M 5.707031 20.988281 L 3.722656 20.988281 L 3.722656 21.980469 L 5.707031 21.980469 Z M 5.707031 20.988281 "/>
<path style=" stroke:none;fill-rule:nonzero;fill:url(#radial2);" d="M 5.707031 20.988281 L 3.722656 20.988281 L 3.722656 19.996094 L 5.707031 19.996094 Z M 5.707031 20.988281 "/>
<path style=" stroke:none;fill-rule:nonzero;fill:url(#radial3);" d="M 18.109375 20.988281 L 20.09375 20.988281 L 20.09375 21.980469 L 18.109375 21.980469 Z M 18.109375 20.988281 "/>
<path style=" stroke:none;fill-rule:nonzero;fill:url(#linear1);" d="M 4.960938 2.171875 L 18.851562 2.171875 C 19.402344 2.171875 19.84375 2.617188 19.84375 3.164062 L 19.84375 20.03125 C 19.84375 20.582031 19.402344 21.027344 18.851562 21.027344 L 4.960938 21.027344 C 4.414062 21.027344 3.96875 20.582031 3.96875 20.03125 L 3.96875 3.164062 C 3.96875 2.617188 4.414062 2.171875 4.960938 2.171875 Z M 4.960938 2.171875 "/>
<path style=" stroke:none;fill-rule:nonzero;fill:url(#linear2);" d="M 11.90625 3.167969 C 11.644531 3.167969 11.394531 3.273438 11.210938 3.457031 L 11.003906 3.664062 L 5.953125 3.664062 C 5.410156 3.664062 4.964844 4.105469 4.964844 4.652344 L 4.964844 18.542969 C 4.964844 19.089844 5.410156 19.53125 5.953125 19.53125 L 11.003906 19.53125 L 11.210938 19.738281 C 11.394531 19.925781 11.644531 20.027344 11.90625 20.027344 L 17.859375 20.027344 C 18.40625 20.027344 18.847656 19.585938 18.847656 19.039062 L 18.847656 4.15625 C 18.847656 3.609375 18.40625 3.167969 17.859375 3.167969 Z M 11.90625 3.167969 "/>
<path style=" stroke:none;fill-rule:nonzero;fill:url(#linear3);" d="M 7.441406 3.660156 L 10.914062 3.660156 L 10.914062 19.535156 L 7.441406 19.535156 Z M 7.441406 3.660156 "/>
<path style=" stroke:none;fill-rule:nonzero;fill:url(#linear4);" d="M 5.953125 3.664062 C 5.410156 3.664062 4.964844 4.105469 4.964844 4.652344 L 4.964844 18.542969 C 4.964844 19.089844 5.410156 19.53125 5.953125 19.53125 L 7.441406 19.53125 L 7.441406 3.664062 Z M 5.953125 3.664062 "/>
<path style="fill:none;stroke-width:3;stroke-linecap:round;stroke-linejoin:round;stroke:rgb(12.941176%,12.941176%,12.941176%);stroke-opacity:1;stroke-miterlimit:4;" d="M 253.975747 -147.42312 C 248.392946 -147.42312 243.060122 -145.173335 239.14383 -141.257042 L 234.727585 -136.840797 L 126.987873 -136.840797 C 115.405646 -136.840797 105.906553 -127.42503 105.906553 -115.759477 L 105.906553 180.545561 C 105.906553 192.211113 115.405646 201.626881 126.987873 201.626881 L 234.727585 201.626881 L 239.14383 206.043126 C 243.060122 210.042744 248.392946 212.209204 253.975747 212.209204 L 380.96362 212.209204 C 392.629172 212.209204 402.04494 202.793436 402.04494 191.127883 L 402.04494 -126.3418 C 402.04494 -138.007352 392.629172 -147.42312 380.96362 -147.42312 Z M 253.975747 -147.42312 " transform="matrix(0.0468795,0,0,0.0468795,0,10.079087)"/>
<path style="fill:none;stroke-width:3;stroke-linecap:round;stroke-linejoin:round;stroke:rgb(12.941176%,12.941176%,12.941176%);stroke-opacity:1;stroke-miterlimit:4;" d="M 158.734842 -136.924123 L 232.811101 -136.924123 L 232.811101 201.710206 L 158.734842 201.710206 Z M 158.734842 -136.924123 " transform="matrix(0.0468795,0,0,0.0468795,0,10.079087)"/>
<path style="fill:none;stroke-width:11.338583;stroke-linecap:round;stroke-linejoin:round;stroke:rgb(12.941176%,12.941176%,12.941176%);stroke-opacity:1;stroke-miterlimit:4;" d="M 479.954173 295.404865 C 436.178825 295.404865 400.276741 330.992018 400.276741 375.082296 L 400.276741 1494.975366 C 400.276741 1539.065644 436.178825 1574.652798 479.954173 1574.652798 L 599.942716 1574.652798 L 599.942716 295.404865 Z M 479.954173 295.404865 " transform="matrix(0.0124035,0,0,0.0124035,0,0)"/>
<path style=" stroke:none;fill-rule:nonzero;fill:rgb(100%,100%,100%);fill-opacity:0.313725;" d="M 4.960938 2.171875 C 4.410156 2.171875 3.96875 2.613281 3.96875 3.164062 L 3.96875 3.414062 C 3.96875 2.863281 4.410156 2.421875 4.960938 2.421875 L 18.851562 2.421875 C 19.402344 2.421875 19.84375 2.863281 19.84375 3.414062 L 19.84375 3.164062 C 19.84375 2.613281 19.402344 2.171875 18.851562 2.171875 Z M 4.960938 2.171875 "/>
<path style=" stroke:none;fill-rule:nonzero;fill:rgb(0%,0%,0%);fill-opacity:0.235294;" d="M 3.96875 19.660156 L 3.96875 20.03125 C 3.96875 20.582031 4.410156 21.027344 4.960938 21.027344 L 18.851562 21.027344 C 19.402344 21.027344 19.84375 20.582031 19.84375 20.03125 L 19.84375 19.660156 C 19.84375 20.210938 19.402344 20.652344 18.851562 20.652344 L 4.960938 20.652344 C 4.410156 20.652344 3.96875 20.210938 3.96875 19.660156 Z M 3.96875 19.660156 "/>
<path style="fill:none;stroke-width:3;stroke-linecap:round;stroke-linejoin:round;stroke:rgb(12.941176%,12.941176%,12.941176%);stroke-opacity:1;stroke-miterlimit:4;" d="M 105.823228 -168.671091 L 402.128265 -168.671091 C 413.877143 -168.671091 423.292911 -159.171998 423.292911 -147.506445 L 423.292911 212.292529 C 423.292911 224.041407 413.877143 233.5405 402.128265 233.5405 L 105.823228 233.5405 C 94.157675 233.5405 84.658582 224.041407 84.658582 212.292529 L 84.658582 -147.506445 C 84.658582 -159.171998 94.157675 -168.671091 105.823228 -168.671091 Z M 105.823228 -168.671091 " transform="matrix(0.0468795,0,0,0.0468795,0,10.079087)"/>
</g>
</svg>
